X:1
T:Rakestraw, 10.10.10.10
T:Rakestraw, 10.10.10.10
T:Cuthbert Howard, before 1913
T:Public Domain Courtesy of the Cyber Hymnal™
C:Cuthbert Howard, before 1913
Z:Public Domain
Z:Courtesy of the Cyber Hymnal™
%%score ( 1 2 ) ( 3 4 )
L:1/8
Q:1/4=115
M:4/4
K:A
V:1 treble 
V:2 treble 
V:3 bass 
V:4 bass 
V:1
 [Ac]4 [Ac]2 [AB]2 | [Ad]6 [Ac]2 | [EA]2 [EA]2 [FA]2 [FB]2 | [Gc]8 | [FA]4 [FA]2 [FB]2 | [EG]4 E4 | %6
 [CG]2 [CF]2 C2 [B,^D]2 | [B,E]8 | E4 [EA]2 [EG]2 | [DF]4 [EF]4 | [Dd]2 [Fd]2 [Ed]2 [Fd]2 | [Gd]8 | %12
 [Ac]4 [Ac]2 [=Gc]2 | [Fc]2 [FB]2 F2 [DA]2 | A4 B4 | A8 |] %16
V:2
 x8 | x8 | x8 | x8 | x8 | x4 E4 | x4 C2 x2 | x8 | E4 x4 | x8 | x8 | x8 | x8 | x4 F2 x2 | %14
 (E2 A2) (A2 G2) | A8 |] %16
V:3
 [A,E]4 [A,E]2 [A,D]2 | [A,F]6 (EC) | [A,C]2 C2 C2 [D,F]2 | [C,^E]8 | [F,C]4 [F,C]2 [^D,B,]2 | %5
 [E,B,]4 [E,G,]4 | [A,,B,]2 [A,,A,]2 [B,,G,]2 [B,,F,]2 | G,8 | [C,A,]4 [C,A,]2 [C,A,]2 | %9
 [D,A,]4 [C,^A,]4 | [B,,B,]2 [A,B,]2 [G,B,]2 [F,B,]2 | [E,B,]8 | A,2 C2 [A,E]2 [A,E]2 | %13
 [D,E]2 [D,D]2 [D,A,]2 [F,D]2 | [E,C]4 [E,D]4 | [A,,C]8 |] %16
V:4
 x8 | x6 A,2 | x2 (A,G,) (F,E,) x2 | x8 | x8 | x8 | x8 | (E,4 D,4) | x8 | x8 | x8 | x8 | A,4 x4 | %13
 x8 | x8 | x8 |] %16

